src/categories-icons-sprite/categories/svg-cat-hobby-art.svg

<svg width="30" height="30" viewBox="0 0 30 30" fill="none" xmlns="http://www.w3.org/2000/svg">
<path class="p-714C2F" d="M7.41388 26.3489L2.76215 29.2059L0.790039 27.2337L3.65957 22.6194L5.75505 22.2202L7.78814 24.2534L7.41388 26.3489Z" fill="#58ADE5"/>
<path class="p-523522" d="M7.78746 24.253L7.4132 26.3486L2.76147 29.2056L1.77539 28.2195L6.76465 23.2302L7.78746 24.253Z" fill="#4D98CB"/>
<path class="p-ECECF1" d="M25.6231 4.39764C25.6106 4.38517 25.6106 4.38517 25.6106 4.38517C19.5861 -1.61443 10.0815 -1.31509 4.35634 4.4101C0.988571 7.77787 -0.632868 12.6174 0.227831 17.5693L0.427394 18.6419L1.43774 18.2304C4.20675 17.1078 7.68671 17.6192 10.0317 19.9641C12.3143 22.2467 12.9754 25.6519 11.7779 28.5706L11.3664 29.5809L12.4391 29.7805C17.3285 30.6286 22.2304 28.9697 25.5857 25.6144C31.4729 19.7272 31.4356 10.2101 25.6231 4.39764Z" fill="#B9DFFC"/>
<path class="p-D3D3D8" d="M25.5863 25.6145C22.231 28.9698 17.3291 30.6287 12.4396 29.7806L11.367 29.581L11.7785 28.5708C12.9759 25.6521 12.3149 22.2469 10.0322 19.9643L25.6113 4.38525C25.6113 4.38525 25.6113 4.38525 25.6238 4.39772C31.4363 10.2102 31.4736 19.7272 25.5863 25.6145Z" fill="#A1D1FD"/>
<path class="p-895D3C" d="M15.1707 18.5671L11.4412 14.8376L3.4834 22.7955L7.22536 26.5374L15.1707 18.5671Z" fill="#A1D1FD"/>
<path class="p-714C2F" d="M7.22524 26.5373L5.3418 24.6539L13.2996 16.696L15.1706 18.567L7.22524 26.5373Z" fill="#5FBEFF"/>
<path class="p-714C2F" d="M21.2732 13.476C20.2498 12.4526 20.236 10.7751 21.2772 9.73387C22.2967 8.71435 23.9732 8.69172 25.019 9.73751C26.0424 10.7609 26.0566 12.4389 25.0154 13.4801C23.9796 14.5158 22.3047 14.5075 21.2732 13.476Z" fill="#4D98CB"/>
<path class="p-E63950" d="M25.0336 20.2262C24.0031 21.2568 22.3226 21.264 21.2878 20.2292C20.2767 19.2181 20.2372 17.5365 21.2882 16.4855C22.3077 15.466 23.9861 15.4396 25.0319 16.4854C26.0414 17.4949 26.0862 19.1736 25.0336 20.2262Z" fill="#58ADE5"/>
<path class="p-FBC56D" d="M4.97748 13.5134C3.96584 12.5017 3.92504 10.8236 4.97554 9.77312C6.02798 8.72068 7.70775 8.75561 8.72121 9.76906C9.73031 10.7782 9.77429 12.4601 8.72115 13.5132C7.68382 14.5506 6.0064 14.5423 4.97748 13.5134Z" fill="#65B3E7"/>
<path class="p-714C2F" d="M16.5242 25.0103C15.5008 23.9869 15.4869 22.3094 16.5282 21.2682C17.5468 20.2495 19.2249 20.2263 20.2698 21.2712C21.2911 22.2925 21.3097 23.971 20.2664 25.0143C19.2307 26.0501 17.5557 26.0418 16.5242 25.0103Z" fill="#4D98CB"/>
<path class="p-94E368" d="M9.74004 8.72659C8.71664 7.70319 8.70276 6.02566 9.74397 4.98445C10.7572 3.97123 12.4327 3.93442 13.4848 4.98656C14.5061 6.00784 14.5256 7.68732 13.4822 8.73064C12.4465 9.76639 10.7715 9.7581 9.74004 8.72659Z" fill="#A1D1FD"/>
<path class="p-FF637B" d="M16.491 8.71619C15.4741 7.69926 15.4435 6.0199 16.4909 4.97252C17.508 3.95535 19.1839 3.92307 20.2315 4.97075C21.2767 6.0159 21.2541 7.69738 20.2352 8.7163C19.2072 9.74429 17.5276 9.75269 16.491 8.71619Z" fill="#76B7E2"/>
<path class="p-FF637B" d="M19.0121 10.9844C18.1391 11.0343 16.8169 11.9941 15.5446 12.2185C14.2973 12.443 12.2025 12.8048 11.5788 13.4284C10.2068 14.8005 10.2068 17.0456 11.5788 18.4176C12.9634 19.8022 15.196 19.7897 16.5681 18.4176C17.8154 17.1703 18.9248 12.7432 19.0121 10.9844Z" fill="#58ADE5"/>
<path class="p-E63950" d="M16.5684 18.4176C15.1963 19.7897 12.9637 19.8022 11.5791 18.4176L19.0124 10.9844C18.9251 12.7432 17.8157 17.1703 16.5684 18.4176Z" fill="#4D98CB"/>
</svg>

<svg width="30" height="30" fill="none" xmlns="http://www.w3.org/2000/svg"><path class="p-714C2F" d="M7.414 26.349l-4.652 2.857L.79 27.234l2.87-4.615 2.095-.399 2.033 2.033-.374 2.096z" fill="#58ADE5"/><path class="p-523522" d="M7.787 24.253l-.374 2.096-4.652 2.857-.986-.986 4.99-4.99 1.022 1.023z" fill="#4D98CB"/><path class="p-ECECF1" d="M25.623 4.398l-.012-.013c-6.025-6-15.53-5.7-21.255.025C.99 7.778-.633 12.617.228 17.57l.2 1.072 1.01-.412c2.769-1.122 6.249-.61 8.594 1.734a7.93 7.93 0 011.746 8.607l-.412 1.01 1.073.2c4.89.848 9.791-.811 13.147-4.167 5.887-5.887 5.85-15.404.037-21.216z" fill="#B9DFFC"/><path class="p-D3D3D8" d="M25.586 25.614a15.018 15.018 0 01-13.146 4.167l-1.073-.2.411-1.01a7.93 7.93 0 00-1.746-8.607l15.58-15.579.012.013c5.812 5.812 5.85 15.33-.038 21.216z" fill="#A1D1FD"/><path class="p-895D3C" d="M15.17 18.567l-3.729-3.73-7.958 7.959 3.742 3.741 7.946-7.97z" fill="#A1D1FD"/><path class="p-714C2F" d="M7.225 26.537l-1.883-1.883 7.958-7.958 1.87 1.871-7.945 7.97z" fill="#5FBEFF"/><path class="p-714C2F" d="M21.273 13.476A2.647 2.647 0 1125.02 9.74a2.647 2.647 0 01-3.746 3.736z" fill="#4D98CB"/><path class="p-E63950" d="M25.034 20.226a2.652 2.652 0 01-3.746.003 2.652 2.652 0 010-3.744 2.65 2.65 0 013.744 0 2.649 2.649 0 01.002 3.741z" fill="#58ADE5"/><path class="p-FBC56D" d="M4.977 13.513A2.648 2.648 0 018.721 9.77a2.652 2.652 0 010 3.744 2.648 2.648 0 01-3.744 0z" fill="#65B3E7"/><path class="p-714C2F" d="M16.524 25.01a2.648 2.648 0 01.004-3.742 2.648 2.648 0 013.742.003 2.646 2.646 0 11-3.746 3.74z" fill="#4D98CB"/><path class="p-94E368" d="M9.74 8.727a2.646 2.646 0 113.742.004 2.646 2.646 0 01-3.742-.004z" fill="#A1D1FD"/><path class="p-FF637B" d="M16.491 8.716a2.646 2.646 0 013.74-3.745 2.653 2.653 0 01.004 3.745 2.65 2.65 0 01-3.744 0z" fill="#76B7E2"/><path class="p-FF637B" d="M19.012 10.984c-.873.05-2.195 1.01-3.467 1.235-1.248.224-3.342.586-3.966 1.21a3.538 3.538 0 000 4.989 3.527 3.527 0 004.99 0c1.246-1.248 2.356-5.675 2.443-7.434z" fill="#58ADE5"/><path class="p-E63950" d="M16.568 18.418a3.527 3.527 0 01-4.989 0l7.433-7.434c-.087 1.76-1.196 6.186-2.444 7.434z" fill="#4D98CB"/></svg>
